X: 104101
Q:"Strathspey."
M: C
L: 1/8
K: D
[|\
vD2uF>A D>AF>A | A,2C>E A,2C>E A,>EC>E |\
uA |\
d2f>d g>ef>d | B2c>d (3efd (3cBA |\
d2f>d g>ef>d |
(3Bcd (3efg f<d d>uA |\
d<d f>d g>ef>d | B2c>d (3efd (3cBA |\
(3fga (3gfe (3dcB (3AGF | (3GAB (3ABc (3dAG (3FG"^D.C."E |]


